public/img/general/logos/ford.svg

<svg width="67" height="24" viewBox="0 0 67 24" fill="none" xmlns="http://www.w3.org/2000/svg">
<path d="M0 11.6589C0 18.0985 14.9989 23.3185 33.5014 23.3185C52.0026 23.3185 67 18.0985 67 11.6589C67 5.21919 52.0026 -6.29425e-05 33.5014 -6.29425e-05C14.9989 -6.29425e-05 0 5.21919 0 11.6589ZM1.1781 11.6589C1.1781 5.77643 15.6486 1.00918 33.5007 1.00918C51.3528 1.00918 65.8226 5.77643 65.8226 11.6589C65.8226 17.5413 51.3528 22.3106 33.5007 22.3106C15.6486 22.3106 1.17881 17.5413 1.1781 11.6589Z" fill="white"/>
<path d="M52.4602 7.70461C52.3275 7.70461 52.2596 7.72085 52.1968 7.84374C51.9905 8.23854 49.4834 11.9958 49.0172 12.7254C48.9388 12.8363 48.842 12.8207 48.8314 12.6943C48.7841 12.2607 48.4098 11.7635 47.8201 11.5241C47.3716 11.3425 46.9309 11.3086 46.4754 11.3687C45.6505 11.4796 44.9159 11.9153 44.2704 12.4062C43.2958 13.1456 42.4567 14.1054 41.3719 14.8138C40.7808 15.1994 39.9693 15.537 39.4283 15.0349C38.9375 14.58 38.9925 13.5694 39.7426 12.7876C39.8217 12.7049 39.9178 12.7727 39.9029 12.8469C39.8316 13.2014 39.9192 13.5524 40.1868 13.7989C40.5153 14.092 40.9835 14.1252 41.3847 13.9296C41.8586 13.6951 42.1368 13.2424 42.218 12.7268C42.3437 11.9294 41.7294 11.226 40.961 11.1695C40.3373 11.1257 39.7384 11.3425 39.155 11.8242C38.8634 12.0665 38.6967 12.2458 38.4446 12.606C38.3824 12.6936 38.2877 12.7028 38.2913 12.5728C38.3202 11.5509 37.8979 10.9774 37.0532 10.9569C36.3985 10.9414 35.6972 11.298 35.1512 11.7324C34.553 12.2134 34.029 12.849 33.4696 13.4479C33.3997 13.5221 33.3383 13.5185 33.3185 13.3766C33.3022 12.6993 33.1313 12.0439 32.8185 11.5784C32.7076 11.4167 32.4745 11.3362 32.2782 11.4457C32.1878 11.4944 31.8728 11.6399 31.6433 11.8249C31.5303 11.9189 31.485 12.0545 31.5359 12.2282C31.8381 13.2381 31.7725 14.3886 31.3615 15.3583C30.985 16.2475 30.2527 17.0505 29.3924 17.321C28.8253 17.5011 28.2362 17.4135 27.8718 16.9114C27.3711 16.2178 27.5738 15.0116 28.3203 14.0101C28.9792 13.1287 29.9313 12.5686 30.8819 12.2077C30.9942 12.1646 31.0175 12.0926 30.985 11.998C30.9335 11.8419 30.8508 11.6293 30.8176 11.5318C30.7308 11.3002 30.4857 11.262 30.1877 11.2952C29.4976 11.375 28.8748 11.6123 28.2589 11.9415C26.6472 12.8038 25.8399 14.4748 25.4861 15.3675C25.3152 15.7976 25.1696 16.0646 24.9811 16.3026C24.7282 16.6225 24.4083 16.9121 23.825 17.4248C23.7734 17.4715 23.7338 17.5689 23.7776 17.66C23.8377 17.7822 24.1413 18.2116 24.2268 18.2498C24.3214 18.2964 24.4323 18.2314 24.4761 18.1996C24.8843 17.9235 25.3724 17.4849 25.6118 17.1875C25.6944 17.0858 25.7806 17.1289 25.8258 17.2829C26.049 18.0774 26.6324 18.7279 27.4396 18.9991C28.9171 19.497 30.449 18.7759 31.6066 17.5202C32.3418 16.7221 32.6065 16.2087 32.8898 15.8598C33.3665 15.2686 34.3086 13.9444 35.4309 13.0955C35.8419 12.7805 36.3293 12.5425 36.5736 12.7007C36.77 12.8278 36.835 13.1244 36.5186 13.6979C35.3751 15.7877 33.6921 18.2406 33.3828 18.8367C33.3256 18.9391 33.3743 19.021 33.4838 19.021C34.0827 19.0175 34.6752 19.0189 35.2191 19.0189C35.3095 19.0146 35.3497 18.9737 35.3956 18.9087C36.2728 17.535 37.0998 16.227 37.9848 14.8745C38.0349 14.7961 38.0794 14.8576 38.0822 14.8922C38.1006 15.2065 38.1776 15.6359 38.3647 15.9177C38.6988 16.4389 39.1734 16.6621 39.7003 16.6656C40.1184 16.6706 40.3303 16.607 40.7809 16.4389C41.1488 16.3019 41.444 16.1239 41.67 15.9608C41.8013 15.8697 41.8247 16.0229 41.8219 16.0469C41.6185 17.1374 41.8698 18.4299 42.9539 18.9659C44.252 19.6051 45.6773 18.706 46.498 17.8952C46.5778 17.8168 46.6632 17.8253 46.6717 17.9934C46.688 18.3027 46.83 18.6714 47.0856 18.9292C47.7721 19.6185 49.1606 19.3452 50.5519 18.2681C51.4453 17.5788 52.3805 16.6035 53.2244 15.5709C53.2562 15.5314 53.2795 15.4664 53.2159 15.4014C53.0874 15.2679 52.9009 15.114 52.7738 14.9946C52.7159 14.9459 52.6312 14.9593 52.581 14.9974C51.7159 15.8202 50.9361 16.7588 49.8096 17.5357C49.4304 17.8013 48.8244 18.0146 48.5525 17.6466C48.4465 17.5025 48.4593 17.3055 48.5638 17.0456C48.8922 16.227 54.0909 8.31128 54.3607 7.84374C54.408 7.76252 54.3608 7.70319 54.2562 7.70319C53.7209 7.70319 53.0189 7.70461 52.4616 7.70461H52.4602ZM44.2168 17.4326C43.9498 17.2942 43.8333 16.9199 43.8396 16.6183C43.8537 15.7651 44.2309 14.8908 44.9301 14.0299C45.784 12.9811 46.7269 12.4344 47.3462 12.7339C47.9861 13.039 47.7813 13.7805 47.4952 14.3625C47.4747 14.4084 47.4726 14.4458 47.4839 14.4833C47.4938 14.5433 47.5729 14.6019 47.6499 14.6295C47.6774 14.6401 47.6929 14.6598 47.6619 14.7227C47.4408 15.1966 47.2375 15.4706 46.9606 15.8817C46.7064 16.2616 46.4189 16.559 46.0707 16.8443C45.666 17.1784 45.1398 17.5371 44.6448 17.5371C44.4986 17.5371 44.3538 17.5061 44.2168 17.4326Z" fill="white"/>
<path d="M24.8221 2.90405C24.3256 2.90405 23.8277 2.92312 23.3256 2.96338C20.1297 3.23317 17.09 5.03201 17.0829 7.7624C17.0829 9.14808 18.0654 10.2696 19.5909 10.2209C21.3841 10.1594 22.8552 8.72433 23.6264 6.91348C23.9188 6.22629 23.3764 5.94096 23.1187 6.33717C22.6582 7.04979 22.0105 7.60208 21.3092 7.94603C20.4652 8.35919 19.5641 8.2476 19.2915 7.56183C18.9073 6.59566 19.706 5.15066 21.5289 4.46983C24.1625 3.49519 26.9176 4.14071 29.5675 4.63862C29.6056 4.63862 29.7469 4.71702 29.6212 4.78199C29.1473 5.04049 28.6804 5.25165 27.9523 5.8781C27.4297 6.32517 26.746 6.91984 26.217 7.56889C25.6929 8.20805 25.3208 8.77871 24.8292 9.4094C24.76 9.50192 24.676 9.49697 24.6774 9.49697C23.4782 9.69967 22.3029 9.83457 21.228 10.5825C21.0055 10.7358 20.9095 11.0084 21.0444 11.2167C21.1658 11.4018 21.442 11.4208 21.6334 11.281C22.3015 10.781 22.9902 10.5465 23.779 10.5246C23.8137 10.5267 23.8292 10.5331 23.839 10.5528C23.8475 10.5648 23.8391 10.5903 23.8278 10.6093C22.6455 12.2479 22.3503 12.6186 21.4618 13.6342C21.007 14.1562 20.5599 14.5969 20.0599 15.0559C18.0428 16.9296 15.8717 16.8993 15.0934 15.7226C14.6294 15.0171 14.6902 14.2776 14.9953 13.6625C15.3696 12.9103 16.1281 12.3587 16.7588 12.0367C16.9933 11.9166 17.0603 11.6179 16.8259 11.346C16.6775 11.1673 16.3146 11.1355 16.0469 11.1849C15.2199 11.3382 14.2431 11.9625 13.6661 12.7147C13.0163 13.5587 12.6915 14.5827 12.8002 15.7318C12.9959 17.8068 14.7036 19.0053 16.6423 18.9912C18.1855 18.9785 19.6396 18.511 21.3869 16.7361C23.0176 15.0799 24.503 12.6073 25.8936 10.3141C25.9367 10.24 25.9677 10.2004 26.1796 10.1743C27.0518 10.0655 28.3401 9.94051 29.1643 9.89319C29.3486 9.8826 29.386 9.88542 29.4588 9.97652C29.6742 10.2477 29.9976 10.478 30.2554 10.6178C30.3811 10.687 30.4412 10.7202 30.5407 10.723C30.6629 10.7259 30.759 10.6595 30.819 10.5896C30.9066 10.4928 30.9306 10.3685 30.8847 10.2873C30.8359 10.2032 30.2597 9.8833 30.242 9.75476C30.2293 9.67354 30.3175 9.65518 30.3175 9.65518C30.7406 9.5224 31.1806 9.24908 31.4483 8.73845C31.7103 8.23489 31.7527 7.56324 31.2724 7.19033C30.8522 6.86263 30.2159 6.91489 29.7088 7.36972C29.2137 7.81184 29.0477 8.45525 29.1162 9.01884C29.1275 9.1163 29.1247 9.1502 28.9898 9.1608C28.2263 9.22083 27.4918 9.24272 26.674 9.28581C26.6196 9.29004 26.6026 9.25403 26.6344 9.21518C27.5752 7.57949 28.9814 6.41486 30.5358 5.2679C30.6382 5.19092 30.6071 5.04401 30.6029 4.92183C33.4096 5.53204 36.1223 6.66629 39.0356 6.64298C40.2391 6.63239 41.3924 6.45018 42.4934 5.84491C43.4631 5.31592 43.8566 4.82719 43.8848 4.31939C43.9081 3.96767 43.6644 3.74662 43.3163 3.82148C40.3733 4.49808 37.5673 4.49031 34.6385 4.13577C31.3176 3.7332 28.1302 2.90546 24.8264 2.90546C24.8264 2.90546 24.8264 2.90546 24.8179 2.90546L24.8221 2.90405ZM29.8931 8.79919C29.8507 8.48844 29.9517 8.07104 30.2843 7.77724C30.451 7.62892 30.6764 7.59502 30.8155 7.71438C30.9702 7.84716 30.8974 8.17698 30.7406 8.40651C30.5704 8.65865 30.2787 8.87688 30.0146 8.92985C30.0061 8.93126 29.9998 8.93268 29.9927 8.93268C29.9482 8.93197 29.9122 8.90089 29.8931 8.79919Z" fill="white"/>
</svg>

<svg width="67" height="24" fill="none" xmlns="http://www.w3.org/2000/svg"><path d="M0 11.659c0 6.44 14.999 11.66 33.501 11.66 18.502 0 33.499-5.22 33.499-11.66S52.003-.001 33.501-.001C15 0 0 5.22 0 11.66zm1.178 0c0-5.883 14.47-10.65 32.323-10.65 17.852 0 32.322 4.767 32.322 10.65 0 5.882-14.47 10.652-32.322 10.652-17.852 0-32.322-4.77-32.323-10.652z" fill="#fff"/><path d="M52.46 7.705c-.133 0-.2.016-.263.139-.207.395-2.714 4.152-3.18 4.881-.078.111-.175.096-.186-.03-.047-.434-.421-.931-1.01-1.17a2.58 2.58 0 00-1.346-.156c-.825.11-1.56.546-2.205 1.037-.974.74-1.813 1.7-2.898 2.408-.591.385-1.403.723-1.944.22-.49-.454-.435-1.465.315-2.246.079-.083.175-.015.16.059-.071.354.016.705.284.952.328.293.797.326 1.198.13.474-.234.752-.687.833-1.202.126-.798-.489-1.501-1.257-1.558-.624-.043-1.223.173-1.806.655a3.442 3.442 0 00-.71.782c-.063.088-.157.097-.154-.033.03-1.022-.393-1.596-1.238-1.616-.654-.016-1.356.341-1.902.775-.598.481-1.122 1.117-1.681 1.716-.07.074-.132.07-.151-.071-.017-.678-.188-1.333-.5-1.799a.417.417 0 00-.54-.132c-.091.048-.406.194-.636.379-.113.094-.158.23-.107.403a4.72 4.72 0 01-.175 3.13c-.376.89-1.108 1.692-1.969 1.963-.567.18-1.156.092-1.52-.41-.5-.693-.298-1.9.448-2.9.66-.882 1.611-1.442 2.562-1.803.112-.043.135-.115.103-.21-.052-.156-.134-.369-.167-.466-.087-.232-.332-.27-.63-.237-.69.08-1.313.317-1.93.646-1.61.863-2.418 2.534-2.772 3.426-.17.43-.316.698-.505.936-.253.32-.573.61-1.156 1.122a.206.206 0 00-.047.235c.06.122.363.552.449.59.094.046.205-.019.25-.05.407-.276.895-.715 1.135-1.012.082-.102.169-.06.214.095a2.507 2.507 0 001.614 1.716c1.477.498 3.009-.223 4.167-1.479.735-.798 1-1.311 1.283-1.66.477-.591 1.419-1.916 2.54-2.764.412-.316.9-.553 1.144-.395.196.127.261.423-.055.997-1.144 2.09-2.827 4.543-3.136 5.139-.057.102-.009.184.1.184.6-.004 1.192-.002 1.736-.002.09-.004.13-.045.177-.11.877-1.374 1.704-2.682 2.589-4.034.05-.079.094-.017.097.017.019.315.096.744.283 1.026.334.52.808.744 1.335.748.418.005.63-.059 1.08-.227.369-.137.664-.315.89-.478.131-.091.155.062.152.086-.204 1.09.048 2.383 1.132 2.919 1.298.64 2.723-.26 3.544-1.07.08-.08.165-.07.174.097a1.5 1.5 0 00.414.936c.686.69 2.075.416 3.466-.66.893-.69 1.828-1.665 2.672-2.698.032-.04.056-.105-.008-.17-.129-.133-.315-.287-.442-.406-.058-.05-.143-.036-.193.002-.865.823-1.645 1.762-2.771 2.539-.38.265-.986.479-1.258.11-.105-.143-.093-.34.012-.6.328-.819 5.527-8.735 5.797-9.202.047-.081 0-.14-.105-.14H52.46zm-8.243 9.728c-.267-.139-.384-.513-.377-.815.014-.853.39-1.727 1.09-2.588.854-1.049 1.797-1.596 2.416-1.296.64.305.435 1.046.15 1.629a.164.164 0 00-.012.12c.01.06.089.119.166.146.027.011.043.03.012.094-.221.474-.425.748-.701 1.159-.255.38-.542.677-.89.962-.405.334-.931.693-1.426.693a.893.893 0 01-.428-.104z" fill="#fff"/><path d="M24.822 2.904c-.496 0-.994.02-1.496.06-3.196.27-6.236 2.068-6.243 4.798 0 1.386.982 2.508 2.508 2.459 1.793-.062 3.264-1.497 4.035-3.308.293-.687-.25-.972-.507-.576a4.567 4.567 0 01-1.81 1.609c-.844.413-1.745.302-2.018-.384-.384-.966.415-2.411 2.238-3.092 2.634-.975 5.389-.33 8.038.169.039 0 .18.078.054.143-.474.258-.94.47-1.669 1.096-.522.447-1.206 1.042-1.735 1.69-.524.64-.896 1.21-1.388 1.841-.069.093-.153.088-.152.088-1.199.203-2.374.338-3.449 1.085-.223.154-.319.426-.184.635.122.185.398.204.59.064a3.605 3.605 0 012.145-.756c.035.002.05.008.06.028.009.012 0 .037-.011.056-1.183 1.639-1.478 2.01-2.366 3.025a17.44 17.44 0 01-1.402 1.422c-2.017 1.874-4.188 1.843-4.967.667-.464-.706-.403-1.445-.098-2.06.375-.753 1.133-1.304 1.764-1.626.234-.12.301-.42.067-.691-.149-.179-.511-.21-.78-.161-.826.153-1.803.777-2.38 1.53a4.19 4.19 0 00-.866 3.017c.196 2.075 1.904 3.273 3.842 3.26 1.544-.014 2.998-.481 4.745-2.256 1.63-1.656 3.116-4.129 4.507-6.422.043-.074.074-.114.286-.14a52.83 52.83 0 012.984-.28c.185-.011.222-.009.295.083.215.27.539.501.796.64.126.07.186.103.286.106a.36.36 0 00.278-.133c.088-.097.112-.222.066-.303-.05-.084-.625-.404-.643-.532-.013-.081.075-.1.075-.1.424-.133.864-.406 1.131-.917.262-.503.305-1.175-.176-1.548-.42-.327-1.056-.275-1.563.18-.495.442-.661 1.085-.593 1.649.012.097.009.131-.126.142-.764.06-1.498.082-2.316.125-.054.004-.071-.032-.04-.07.941-1.637 2.347-2.801 3.902-3.948.102-.077.071-.224.067-.346 2.807.61 5.52 1.744 8.433 1.721 1.203-.01 2.356-.193 3.457-.798.97-.53 1.364-1.018 1.392-1.526.023-.351-.22-.572-.569-.498-2.943.677-5.749.67-8.678.315-3.32-.403-6.508-1.23-9.812-1.23h-.008l.004-.002zm5.071 5.895a1.18 1.18 0 01.391-1.022c.167-.148.392-.182.532-.063.154.133.081.463-.075.693-.17.252-.462.47-.726.523l-.022.003c-.045-.001-.08-.032-.1-.134z" fill="#fff"/></svg>
